!!!SOCIAL_FUNCTION:	songs with stories
!!!PDT:	1956
!!!OTL: No_230_The_Opossum_Dies.krn
!!!LANG: Non-Tone
!!!LING_GROUP: Muskogean
!!!REG: Florida
**kern
*staff1
=1-
*clefF4
*k[]
*M3/4
2r
4A\
=2!|:
2G\
4A\
=3
2G\
4G\
=4
2E\
4F\
=5||
*M2/4
4E\
4r
=6||
*M3/4
8C/L
8C/J
8C/
8r
4r
=7||
*M2/4
8C/L
8C/J
8C/
8r
=8||
*M3/4
2G\
4F\
=9||
*M2/4
16E\LK
8.E\J
4r
=10||
*M3/4
2C^/
4r
=11||
*M2/4
4.C^/
8r
=12||
*M3/4
2E\
8E/L
8C/J
=13||
*M2/4
4E\
4r
=14||
*M3/4
2C/
8C/L
8GG/J
=15
=
4C/
4r
4A\
=16:|!
4C/
2r
==
*-
